X: 146
T:The Repeal of the Union
M:4/4
L:1/8
S:Roaring Mary
R:reel
Z:Barney
K:G
cB|:AD (3DDD A3 G|{_E}=E2 cE dEcB|AD (3DDD (3ABA AG|E2 cE ED D2:||
Adde fded|ABcA dBcB|Adde fded|AGcE ED D2|
Adde fded|ABcd eg ~g2|(3agf {f}ge dcAB|cAGE ED D2||
AD (3DDD A3 G|{_E}=E2 cE dEcB|AD (3DDD (3ABA AG|E2 cE ED D2:||
Adde fded|ABcA dBcB|Adde fded|AGcE ED D2|
Adde fded|ABcd eg ~g2|(3agf {f}ge dcAB|cAGE ED D2||
